Numix/16/status/indicator-keyboard-Lt-2.svg

<?xml version="1.0" encoding="UTF-8" standalone="no"?>
<svg
   xmlns:dc="http://purl.org/dc/elements/1.1/"
   xmlns:cc="http://creativecommons.org/ns#"
   xmlns:rdf="http://www.w3.org/1999/02/22-rdf-syntax-ns#"
   xmlns:svg="http://www.w3.org/2000/svg"
   xmlns="http://www.w3.org/2000/svg"
   xmlns:sodipodi="http://sodipodi.sourceforge.net/DTD/sodipodi-0.dtd"
   xmlns:inkscape="http://www.inkscape.org/namespaces/inkscape"
   viewBox="0 0 16 16"
   id="svg2"
   version="1.1"
   inkscape:version="0.91 r13725"
   sodipodi:docname="indicator-keyboard-Lt-2.svg">
  <metadata
     id="metadata14">
    <rdf:RDF>
      <cc:Work
         rdf:about="">
        <dc:format>image/svg+xml</dc:format>
        <dc:type
           rdf:resource="http://purl.org/dc/dcmitype/StillImage" />
      </cc:Work>
    </rdf:RDF>
  </metadata>
  <defs
     id="defs12" />
  <sodipodi:namedview
     pagecolor="#ffffff"
     bordercolor="#666666"
     borderopacity="1"
     objecttolerance="10"
     gridtolerance="10"
     guidetolerance="10"
     inkscape:pageopacity="0"
     inkscape:pageshadow="2"
     inkscape:window-width="640"
     inkscape:window-height="480"
     id="namedview10"
     showgrid="false"
     inkscape:zoom="14.75"
     inkscape:cx="8"
     inkscape:cy="8"
     inkscape:window-x="65"
     inkscape:window-y="24"
     inkscape:window-maximized="0"
     inkscape:current-layer="svg2" />
  <path
     style="fill:#ececec;fill-opacity:1"
     d="M 1.5996094 0 C 0.71320937 2.9605947e-16 0 0.71320937 0 1.5996094 L 0 14.400391 C 2.9605947e-16 15.286791 0.71320937 16 1.5996094 16 L 14.400391 16 C 15.286791 16 16 15.286791 16 14.400391 L 16 1.5996094 C 16 0.71320937 15.286791 0 14.400391 0 L 1.5996094 0 z M 3.0019531 4.859375 L 3.6132812 4.859375 L 3.6132812 10.564453 L 6.5488281 10.564453 L 6.5488281 11.095703 L 3.0019531 11.095703 L 3.0019531 4.859375 z M 8.0332031 4.9667969 L 8.0332031 6.4433594 L 9.8867188 6.4433594 L 9.8867188 6.9375 L 8.0332031 6.9375 L 8.0332031 9.4121094 C 8.0332031 9.6761094 8.0537031 9.8925467 8.0957031 10.060547 C 8.1437031 10.222547 8.2089687 10.349453 8.2929688 10.439453 C 8.3769688 10.529453 8.4796094 10.589141 8.5996094 10.619141 C 8.7196094 10.649141 8.8520937 10.664062 8.9960938 10.664062 C 9.2420938 10.664062 9.4398437 10.636031 9.5898438 10.582031 C 9.7398437 10.522031 9.8574063 10.469875 9.9414062 10.421875 L 10.083984 10.90625 C 9.9999842 10.96025 9.8545312 11.023703 9.6445312 11.095703 C 9.4345313 11.161703 9.2049844 11.195313 8.9589844 11.195312 C 8.6709844 11.195312 8.4284687 11.159891 8.2304688 11.087891 C 8.0384687 11.009891 7.8817188 10.894141 7.7617188 10.744141 C 7.6477188 10.588141 7.5675312 10.397922 7.5195312 10.169922 C 7.4715312 9.9419217 7.4472656 9.671375 7.4472656 9.359375 L 7.4472656 5.0742188 L 8.0332031 4.9667969 z M 11.669922 8.7539062 C 12.063822 8.7539062 12.359694 8.851875 12.558594 9.046875 C 12.757494 9.237975 12.857422 9.5044563 12.857422 9.8476562 C 12.857422 9.9997563 12.829991 10.14475 12.775391 10.28125 C 12.720791 10.41385 12.646334 10.543169 12.552734 10.667969 C 12.463034 10.792769 12.361141 10.912297 12.244141 11.029297 C 12.127141 11.146297 12.007619 11.263859 11.886719 11.380859 C 11.785319 11.478359 11.685391 11.578288 11.587891 11.679688 C 11.494291 11.777188 11.408078 11.877116 11.330078 11.978516 C 11.255978 12.076016 11.197191 12.172031 11.150391 12.269531 C 11.107491 12.363131 11.085937 12.457181 11.085938 12.550781 L 11.085938 12.5625 L 12.998047 12.5625 L 12.998047 12.896484 L 10.664062 12.896484 C 10.664062 12.888684 10.662136 12.874969 10.658203 12.855469 L 10.658203 12.755859 C 10.658203 12.572559 10.691512 12.402094 10.757812 12.246094 C 10.824113 12.086194 10.908366 11.937275 11.009766 11.796875 C 11.115066 11.656475 11.228716 11.525197 11.353516 11.404297 C 11.482216 11.283397 11.605656 11.165834 11.722656 11.052734 C 11.820156 10.959134 11.912247 10.869003 11.998047 10.783203 C 12.087747 10.693503 12.166122 10.603366 12.232422 10.509766 C 12.298722 10.416166 12.349672 10.316237 12.388672 10.210938 C 12.427672 10.105638 12.447266 9.9900344 12.447266 9.8652344 C 12.447266 9.5922344 12.374763 9.39825 12.226562 9.28125 C 12.082262 9.16035 11.898081 9.0996094 11.675781 9.0996094 C 11.550981 9.0996094 11.439297 9.1152844 11.341797 9.1464844 C 11.244297 9.1776844 11.160037 9.2149125 11.085938 9.2578125 C 11.015737 9.2968125 10.954997 9.3379594 10.904297 9.3808594 C 10.853597 9.4237594 10.816369 9.4570688 10.792969 9.4804688 L 10.59375 9.2167969 C 10.61715 9.1894969 10.658297 9.1503094 10.716797 9.0996094 C 10.779197 9.0450094 10.855612 8.9921062 10.945312 8.9414062 C 11.038913 8.8907063 11.144725 8.8476 11.265625 8.8125 C 11.386525 8.7735 11.521722 8.7539063 11.669922 8.7539062 z "
     id="path4" />
</svg>

<svg xmlns="http://www.w3.org/2000/svg" viewBox="0 0 16 16">
 <path d="m 1.6 0 c -0.886 0 -1.6 0.713 -1.6 1.6 l 0 12.801 c 0 0.886 0.713 1.6 1.6 1.6 l 12.801 0 c 0.886 0 1.6 -0.713 1.6 -1.6 l 0 -12.801 c 0 -0.886 -0.713 -1.6 -1.6 -1.6 l -12.801 0 z m 1.402 4.859 l 0.611 0 l 0 5.705 l 2.936 0 l 0 0.531 l -3.547 0 l 0 -6.236 z m 5.03 0.107 l 0 1.477 l 1.854 0 l 0 0.494 l -1.854 0 l 0 2.475 c 0 0.264 0.021 0.48 0.063 0.648 c 0.048 0.162 0.113 0.289 0.197 0.379 c 0.084 0.09 0.187 0.15 0.307 0.18 c 0.12 0.03 0.252 0.045 0.396 0.045 c 0.246 0 0.444 -0.028 0.594 -0.082 c 0.15 -0.06 0.268 -0.112 0.352 -0.16 l 0.143 0.484 c -0.084 0.054 -0.229 0.117 -0.439 0.189 c -0.21 0.066 -0.44 0.1 -0.686 0.1 c -0.288 0 -0.531 -0.035 -0.729 -0.107 c -0.192 -0.078 -0.349 -0.194 -0.469 -0.344 c -0.114 -0.156 -0.194 -0.346 -0.242 -0.574 c -0.048 -0.228 -0.072 -0.499 -0.072 -0.811 l 0 -4.285 l 0.586 -0.107 z m 3.637 3.787 c 0.394 0 0.69 0.098 0.889 0.293 c 0.199 0.191 0.299 0.458 0.299 0.801 c 0 0.152 -0.027 0.297 -0.082 0.434 c -0.055 0.133 -0.129 0.262 -0.223 0.387 c -0.09 0.125 -0.192 0.244 -0.309 0.361 c -0.117 0.117 -0.237 0.235 -0.357 0.352 c -0.101 0.098 -0.201 0.197 -0.299 0.299 c -0.094 0.098 -0.18 0.197 -0.258 0.299 c -0.074 0.097 -0.133 0.194 -0.18 0.291 c -0.043 0.094 -0.064 0.188 -0.064 0.281 l 0 0.012 l 1.912 0 l 0 0.334 l -2.334 0 c 0 -0.008 -0.002 -0.022 -0.006 -0.041 l 0 -0.1 c 0 -0.183 0.033 -0.354 0.1 -0.51 c 0.066 -0.16 0.151 -0.309 0.252 -0.449 c 0.105 -0.14 0.219 -0.272 0.344 -0.393 c 0.129 -0.121 0.252 -0.238 0.369 -0.352 c 0.098 -0.094 0.19 -0.184 0.275 -0.27 c 0.09 -0.09 0.168 -0.18 0.234 -0.273 c 0.066 -0.094 0.117 -0.194 0.156 -0.299 c 0.039 -0.105 0.059 -0.221 0.059 -0.346 c 0 -0.273 -0.073 -0.467 -0.221 -0.584 c -0.144 -0.121 -0.328 -0.182 -0.551 -0.182 c -0.125 0 -0.236 0.016 -0.334 0.047 c -0.098 0.031 -0.182 0.068 -0.256 0.111 c -0.07 0.039 -0.131 0.08 -0.182 0.123 c -0.051 0.043 -0.088 0.076 -0.111 0.1 l -0.199 -0.264 c 0.023 -0.027 0.065 -0.066 0.123 -0.117 c 0.062 -0.055 0.139 -0.108 0.229 -0.158 c 0.094 -0.051 0.199 -0.094 0.32 -0.129 c 0.121 -0.039 0.256 -0.059 0.404 -0.059 z" style="fill:#ececec;fill-opacity:1"/>
</svg>
